X:1
T:Title
%%score 1 { 2 | 3 }
L:1/8
Q:1/4=80
M:2/4
K:Eb
V:1 treble nm="Grand Piano, Soprano"
V:2 bass nm="Choir Pad, Jesus Loves the Children"
V:3 bass 
V:1
 [EB]>[Ec] [EB][EG] | [DF] [B,E]3 | [B,D][DF] [DF]2 | E[EG] [EG]2 | [EB]>[Ec] [EB][EG] | %5
w: By~Daniel~Boardman~Purinton * * *|||||
 [DF] [CE]3 | [CF][FA] [EG][DF] | E4 | [Ec]>[Ec] [Ec][Ec] | [EB][EG] [EG]2 | [DF][FA] [FA]2 | %11
w: ||||||
 [EG][GB] [GB]2 | [Ac]>[Ac] [Ae][Ac] | [GB] [EG]2 E | [CF][FA] [EG][DF] | E4- | E2 z2 |] %17
w: ||||||
V:2
 G,>A, G,B, | A, G,3 | F,A, A,2 | G,B, B,2 | G,>A, G,B, | A, G,3 | A,C B,A, | G,4 | A,>A, A,A, | %9
 G,B, B,2 | B,B, B,2 | B,[K:treble]E E2 | E>E CE | E[K:bass] B,2 G, | A,C B,A, | G,4- | G,2 z2 |] %17
V:3
 E,>E, E,E, | B,, E,3 | B,,B,, B,,2 | E,E, E,2 | E,>E, E,E, | B,, C,3 | A,,A,, B,,B,, | E,4 | z4 | %9
 E,E, E,2 | B,,B,, B,,2 | E,E, E,2 | A,>A, A,A, | E, E,2 E, | A,,A,, B,,B,, | E,4- | E,2 z2 |] %17

